static/img/site/postgres.svg

<svg width="32" height="32" viewBox="0 0 32 32" fill="none" xmlns="http://www.w3.org/2000/svg">
<path d="M28.4334 18.648C28.2784 18.1784 27.8722 17.8514 27.3469 17.7729C27.0993 17.7359 26.8156 17.7517 26.48 17.8208C25.8949 17.9416 25.4609 17.9875 25.1441 17.9964C26.3398 15.9777 27.312 13.6757 27.8717 11.5087C28.7767 8.00479 28.2931 6.40853 27.728 5.68651C26.2323 3.77539 24.0502 2.74873 21.4177 2.71731C20.0133 2.70014 18.7805 2.97741 18.1373 3.17681C17.5386 3.07115 16.8947 3.01216 16.2192 3.00125C14.9528 2.98105 13.8339 3.25711 12.8779 3.82449C12.3486 3.6455 11.4991 3.39317 10.5181 3.23216C8.21078 2.85337 6.35118 3.14853 4.99098 4.10943C3.34391 5.27287 2.58038 7.29428 2.72159 10.1175C2.76644 11.0139 3.26785 13.7412 4.05735 16.3276C4.51108 17.8143 4.99492 19.0488 5.49543 19.9973C6.20522 21.3423 6.96472 22.1343 7.81735 22.4187C8.29522 22.5779 9.16351 22.6894 10.0767 21.9288C10.1925 22.069 10.3469 22.2083 10.5519 22.3377C10.8122 22.5019 11.1305 22.636 11.4484 22.7155C12.5939 23.0019 13.6669 22.9302 14.5824 22.5288C14.5881 22.6917 14.5924 22.8472 14.596 22.9816C14.6021 23.1994 14.6082 23.4131 14.6161 23.6129C14.6704 24.9638 14.7623 26.0142 15.0346 26.7491C15.0496 26.7895 15.0697 26.8512 15.0909 26.9165C15.2267 27.3325 15.4539 28.0288 16.0319 28.5742C16.6304 29.1391 17.3543 29.3124 18.0173 29.3124C18.3499 29.3124 18.6671 29.2687 18.9454 29.2091C19.9373 28.9965 21.0639 28.6727 21.8789 27.5123C22.6494 26.4153 23.0239 24.7631 23.0917 22.1597C23.1005 22.0861 23.1086 22.0158 23.1163 21.9488L23.1325 21.8113L23.314 21.8272L23.3608 21.8303C24.3711 21.8764 25.6064 21.6622 26.3651 21.3097C26.9646 21.0316 28.8857 20.0173 28.4334 18.648Z" fill="black"/>
<path d="M26.6962 18.9139C23.6922 19.5336 23.4856 18.5165 23.4856 18.5165C26.6574 13.8102 27.9833 7.83613 26.8392 6.37401C23.7176 2.38563 18.314 4.27189 18.2238 4.32078L18.1948 4.32603C17.6013 4.2028 16.9372 4.12947 16.1906 4.11725C14.8314 4.09502 13.8003 4.47361 13.0179 5.06694C13.0179 5.06694 3.37846 1.09583 3.82685 10.0613C3.9222 11.9686 6.56059 24.4929 9.70745 20.71C10.8577 19.3266 11.9691 18.157 11.9691 18.157C12.521 18.5237 13.1818 18.7108 13.8745 18.6436L13.9284 18.5979C13.9116 18.7697 13.9193 18.9376 13.9499 19.1365C13.1392 20.0423 13.3775 20.2013 11.7568 20.5349C10.1169 20.8729 11.0803 21.4745 11.7093 21.6319C12.4718 21.8225 14.2358 22.0926 15.4278 20.424L15.3803 20.6144C15.6979 20.8689 15.9209 22.2693 15.8835 23.5389C15.8461 24.8083 15.8212 25.68 16.0714 26.3608C16.3218 27.0416 16.5712 28.5734 18.7017 28.1169C20.4818 27.7354 21.4043 26.7468 21.5327 25.0977C21.6237 23.9254 21.8299 24.0988 21.8428 23.0506L22.0082 22.5544C22.1988 20.9652 22.0385 20.4525 23.1351 20.691L23.4018 20.7144C24.2089 20.7511 25.2654 20.5845 25.8855 20.2963C27.2207 19.6767 28.0126 18.6421 26.696 18.9139H26.6962Z" fill="#336791"/>
<path d="M13.5881 10.9137C13.3174 10.8761 13.0722 10.9109 12.9482 11.0048C12.8785 11.0577 12.8569 11.1189 12.851 11.161C12.8355 11.2726 12.9136 11.3961 12.9617 11.4597C13.0977 11.6399 13.2963 11.7637 13.4928 11.791C13.5213 11.795 13.5497 11.7969 13.5779 11.7969C13.9057 11.7969 14.2037 11.5416 14.23 11.3532C14.2628 11.1173 13.9203 10.9599 13.5881 10.9137ZM22.5562 10.9212C22.5303 10.7363 22.2012 10.6835 21.8889 10.727C21.577 10.7704 21.2745 10.9112 21.2998 11.0966C21.32 11.2407 21.5803 11.4868 21.8884 11.4868C21.9144 11.4868 21.9407 11.485 21.9672 11.4813C22.1728 11.4528 22.3237 11.3222 22.3955 11.247C22.5045 11.1322 22.5678 11.0043 22.5562 10.9212Z" fill="white"/>
<path d="M27.7051 18.8397C27.5905 18.4933 27.2218 18.3819 26.6093 18.5083C24.7906 18.8837 24.1393 18.6237 23.9255 18.4662C25.3391 16.3127 26.502 13.7095 27.1294 11.2807C27.4266 10.1302 27.5907 9.06168 27.6042 8.19078C27.619 7.23492 27.4562 6.53249 27.1204 6.1034C25.7667 4.3736 23.7798 3.44573 21.3748 3.42027C19.7213 3.40169 18.3244 3.82482 18.0536 3.94381C17.4833 3.80199 16.8615 3.71492 16.1847 3.70381C14.9435 3.68371 13.8705 3.98088 12.9823 4.58663C12.5964 4.443 11.5992 4.10068 10.3797 3.90421C8.27145 3.56482 6.5961 3.82199 5.40054 4.66896C3.97398 5.67966 3.31539 7.48633 3.44297 10.0387C3.4859 10.8973 3.97519 13.539 4.74731 16.0688C5.76367 19.3984 6.86852 21.2834 8.03094 21.6712C8.16701 21.7165 8.32387 21.7482 8.4969 21.7482C8.92094 21.7482 9.44084 21.5571 9.98175 20.9068C10.6415 20.1154 11.324 19.3431 12.0283 18.5911C12.4853 18.8363 12.9873 18.9733 13.5007 18.987C13.5018 19.0005 13.5031 19.0139 13.5043 19.0272C13.4159 19.1326 13.3293 19.2395 13.2447 19.3479C12.8889 19.7996 12.8149 19.8936 11.6697 20.1294C11.344 20.1966 10.4788 20.3749 10.4661 20.9814C10.4524 21.644 11.4888 21.9223 11.6069 21.9518C12.0184 22.0548 12.4149 22.1056 12.793 22.1056C13.7125 22.1056 14.5216 21.8034 15.1683 21.2187C15.1484 23.5809 15.2469 25.9085 15.5305 26.6177C15.7629 27.1983 16.3303 28.6172 18.1229 28.6171C18.3859 28.6171 18.6754 28.5865 18.9939 28.5182C20.8647 28.1172 21.6771 27.2904 21.9913 25.4674C22.1595 24.4932 22.4481 22.1668 22.5839 20.919C22.8703 21.0083 23.2391 21.0493 23.6378 21.0492C24.4693 21.0492 25.4288 20.8725 26.0305 20.5932C26.7065 20.2793 27.9263 19.509 27.7051 18.8397ZM23.2499 10.4073C23.2438 10.7757 23.1931 11.1102 23.1393 11.4593C23.0814 11.8347 23.0216 12.2229 23.0066 12.6941C22.9917 13.1527 23.049 13.6295 23.1044 14.0906C23.2163 15.0219 23.3311 15.9807 22.8866 16.9267C22.8128 16.7959 22.747 16.6607 22.6896 16.5218C22.6344 16.3878 22.5144 16.1727 22.3482 15.8749C21.7018 14.7157 20.1882 12.0012 20.9631 10.8935C21.1939 10.5638 21.7796 10.2248 23.2499 10.4073ZM21.4677 4.16623C23.6227 4.21381 25.3273 5.01997 26.5342 6.56219C27.4598 7.74512 26.4405 13.1276 23.4897 17.7712C23.4601 17.7334 23.4302 17.6958 23.4002 17.6583L23.3629 17.6117C24.1254 16.3524 23.9763 15.1064 23.8436 14.0018C23.789 13.5485 23.7375 13.1203 23.7506 12.718C23.7642 12.2918 23.8205 11.9261 23.8751 11.5726C23.942 11.1369 24.0102 10.6861 23.9914 10.1547C24.0055 10.099 24.0111 10.0331 24.0038 9.95492C23.9558 9.44532 23.374 7.92017 22.1881 6.53977C21.5394 5.78472 20.5935 4.93977 19.3019 4.36987C19.8574 4.25472 20.6171 4.14734 21.4677 4.16623ZM9.40933 20.4309C8.81337 21.1474 8.40185 21.0101 8.2665 20.965C7.38468 20.6709 6.36145 18.807 5.45933 15.8515C4.67872 13.2941 4.22256 10.7225 4.1864 10.0014C4.07246 7.72078 4.62529 6.13138 5.82963 5.27724C7.78963 3.88734 11.0121 4.71926 12.3069 5.14118C12.2883 5.15956 12.2689 5.17674 12.2505 5.19542C10.1257 7.34128 10.1761 11.0075 10.1813 11.2317C10.1811 11.3181 10.1884 11.4406 10.1983 11.609C10.2349 12.2256 10.303 13.3733 10.1211 14.673C9.95226 15.8808 10.3246 17.0629 11.1425 17.9163C11.2264 18.0037 11.3146 18.0869 11.4068 18.1656C11.0428 18.5555 10.2516 19.4177 9.40933 20.4309ZM11.6799 17.4013C11.0207 16.7134 10.7213 15.7566 10.8584 14.776C11.0503 13.4031 10.9795 12.2073 10.9414 11.5649C10.9361 11.475 10.9313 11.3962 10.9286 11.3341C11.239 11.0589 12.6775 10.2881 13.7034 10.5232C14.1714 10.6304 14.4567 10.9492 14.5753 11.4974C15.189 14.3361 14.6565 15.5193 14.2286 16.4701C14.1404 16.6659 14.0571 16.8511 13.986 17.0426L13.9308 17.1907C13.7912 17.565 13.6613 17.9131 13.5808 18.2436C12.88 18.2416 12.1983 17.9422 11.6799 17.4012V17.4013ZM11.7875 21.2296C11.5829 21.1784 11.3988 21.0897 11.2908 21.016C11.381 20.9736 11.5415 20.9158 11.8199 20.8584C13.1671 20.5812 13.3752 20.3854 13.8295 19.8085C13.9337 19.6762 14.0518 19.5263 14.2153 19.3437L14.2155 19.3435C14.459 19.0708 14.5704 19.117 14.7725 19.2009C14.9362 19.2685 15.0957 19.4738 15.1603 19.6997C15.1909 19.8063 15.2253 20.0088 15.1129 20.1663C14.1638 21.4952 12.7807 21.4781 11.7875 21.2296ZM18.8379 27.7904C17.1898 28.1435 16.6063 27.3026 16.2218 26.3413C15.9736 25.7207 15.8515 22.9221 15.9381 19.8315C15.9392 19.7904 15.9334 19.7507 15.9221 19.7133C15.9119 19.6395 15.8965 19.5665 15.876 19.4949C15.7473 19.0452 15.4337 18.6691 15.0574 18.5131C14.9079 18.4512 14.6336 18.3375 14.3039 18.4219C14.3742 18.1322 14.4961 17.805 14.6283 17.4508L14.6838 17.3018C14.7462 17.1338 14.8246 16.9598 14.9074 16.7755C15.3552 15.7808 15.9684 14.4182 15.3029 11.3402C15.0536 10.1872 14.221 9.62421 12.959 9.75502C12.2025 9.8333 11.5102 10.1386 11.165 10.3136C11.0907 10.3512 11.0229 10.3875 10.9594 10.4229C11.0558 9.26128 11.4198 7.09037 12.7816 5.71684C13.6391 4.85219 14.781 4.42512 16.1724 4.44815C18.9138 4.493 20.6717 5.89987 21.6639 7.07229C22.5188 8.08249 22.9817 9.10017 23.1665 9.64906C21.7771 9.50774 20.8322 9.78199 20.3532 10.4668C19.311 11.9565 20.9233 14.8478 21.6981 16.2374C21.8402 16.4921 21.9629 16.7122 22.0014 16.8057C22.2538 17.4172 22.5804 17.8255 22.8189 18.1235C22.8921 18.2148 22.963 18.3034 23.0169 18.3808C22.5961 18.5021 21.8402 18.7824 21.9091 20.1835C21.8536 20.8865 21.4585 24.178 21.2578 25.341C20.9929 26.8773 20.4275 27.4496 18.8379 27.7905V27.7904ZM25.7171 19.918C25.2868 20.1177 24.5667 20.2675 23.8827 20.2998C23.1271 20.3351 22.7425 20.2151 22.652 20.1413C22.6095 19.2681 22.9345 19.1769 23.2784 19.0804C23.3325 19.0652 23.3852 19.0504 23.4361 19.0326C23.4677 19.0583 23.5024 19.0839 23.5403 19.109C24.1476 19.5098 25.2307 19.553 26.7599 19.2373L26.7767 19.234C26.5704 19.4268 26.2175 19.6856 25.7171 19.918Z" fill="white"/>
</svg>

<svg xmlns="http://www.w3.org/2000/svg" width="32" height="32" fill="none" viewBox="0 0 32 32"><path fill="#000" d="M28.433 18.648c-.155-.47-.56-.797-1.086-.875a2.5 2.5 0 0 0-.867.048c-.585.12-1.02.166-1.336.175 1.196-2.018 2.168-4.32 2.728-6.487.905-3.504.421-5.1-.144-5.822-1.496-1.912-3.678-2.938-6.31-2.97a11.2 11.2 0 0 0-3.28.46A12 12 0 0 0 16.218 3c-1.266-.02-2.385.256-3.341.823a15 15 0 0 0-2.36-.592c-2.307-.379-4.167-.083-5.527.877-1.647 1.164-2.41 3.185-2.27 6.009.045.896.547 3.623 1.336 6.21.454 1.486.938 2.72 1.438 3.67.71 1.344 1.47 2.136 2.322 2.42.478.16 1.347.271 2.26-.49.116.141.27.28.475.41.26.164.579.298.896.377 1.146.287 2.219.215 3.134-.186l.014.453c.006.217.012.431.02.63.054 1.352.146 2.402.419 3.137.015.04.035.102.056.168.136.415.363 1.112.94 1.657.6.565 1.323.738 1.986.738.333 0 .65-.043.928-.103.992-.212 2.119-.536 2.934-1.697.77-1.097 1.145-2.749 1.213-5.352l.024-.211.017-.138.181.016.047.003c1.01.046 2.245-.168 3.004-.52.6-.278 2.52-1.293 2.068-2.662"/><path fill="#336791" d="M26.696 18.914c-3.004.62-3.21-.398-3.21-.398 3.171-4.706 4.497-10.68 3.353-12.142-3.121-3.988-8.525-2.102-8.615-2.053l-.03.005a10.7 10.7 0 0 0-2.003-.209c-1.36-.022-2.39.357-3.173.95 0 0-9.64-3.971-9.191 4.994.095 1.908 2.734 14.432 5.88 10.649 1.15-1.383 2.262-2.553 2.262-2.553a2.92 2.92 0 0 0 1.906.487l.053-.046c-.016.172-.009.34.022.539-.81.905-.572 1.064-2.193 1.398-1.64.338-.677.94-.048 1.097.763.19 2.527.46 3.719-1.208l-.048.19c.318.255.54 1.655.503 2.925s-.062 2.141.188 2.822c.25.68.5 2.212 2.63 1.756 1.78-.382 2.703-1.37 2.832-3.02.09-1.172.297-.998.31-2.046l.165-.497c.19-1.589.03-2.101 1.127-1.863l.267.023c.807.037 1.863-.13 2.483-.418 1.336-.62 2.128-1.654.811-1.382"/><path fill="#fff" d="M13.588 10.914c-.27-.038-.516-.003-.64.09a.24.24 0 0 0-.097.157c-.016.112.063.235.11.299.137.18.335.304.532.331a1 1 0 0 0 .085.006c.328 0 .626-.255.652-.444.033-.236-.31-.393-.642-.44m8.968.007c-.026-.185-.355-.237-.667-.194s-.614.184-.59.37c.021.144.281.39.59.39a1 1 0 0 0 .078-.006.76.76 0 0 0 .428-.234c.11-.115.173-.243.161-.326"/><path fill="#fff" d="M27.705 18.84c-.114-.347-.483-.458-1.096-.332-1.818.376-2.47.116-2.684-.042 1.414-2.153 2.577-4.757 3.204-7.185.298-1.15.462-2.22.475-3.09.015-.956-.148-1.659-.484-2.088-1.353-1.73-3.34-2.657-5.745-2.683-1.654-.018-3.05.405-3.321.524a8.3 8.3 0 0 0-1.87-.24c-1.24-.02-2.314.277-3.202.883a14.3 14.3 0 0 0-2.602-.683c-2.109-.34-3.784-.082-4.98.765-1.426 1.01-2.085 2.817-1.957 5.37.043.858.532 3.5 1.304 6.03 1.017 3.33 2.122 5.214 3.284 5.602.136.046.293.077.466.077.424 0 .944-.19 1.485-.841a54 54 0 0 1 2.046-2.316c.457.245.96.382 1.473.396q0 .02.003.04-.132.159-.26.32c-.355.453-.43.547-1.574.782-.326.068-1.191.246-1.204.852-.014.663 1.023.941 1.14.97q.619.155 1.187.155c.92 0 1.729-.303 2.375-.887-.02 2.362.079 4.69.363 5.399.232.58.8 2 2.592 2q.394.002.87-.1c1.872-.4 2.684-1.228 2.998-3.05.169-.975.457-3.301.593-4.549.286.09.655.13 1.054.13.831 0 1.79-.177 2.392-.456.676-.314 1.896-1.084 1.675-1.753m-4.455-8.433a7.6 7.6 0 0 1-.11 1.052 10 10 0 0 0-.133 1.235c-.015.459.042.935.097 1.397.112.93.227 1.89-.217 2.836a4 4 0 0 1-.197-.405 8 8 0 0 0-.342-.647c-.646-1.16-2.16-3.874-1.385-4.982.23-.33.817-.668 2.287-.486m-1.782-6.24c2.155.047 3.86.853 5.066 2.395.926 1.183-.093 6.566-3.044 11.21l-.09-.114-.037-.046c.762-1.26.613-2.506.48-3.61-.054-.453-.105-.882-.092-1.284.013-.426.07-.792.124-1.145.067-.436.135-.887.116-1.418a.6.6 0 0 0 .013-.2c-.048-.51-.63-2.035-1.816-3.415-.649-.755-1.594-1.6-2.886-2.17a9.7 9.7 0 0 1 2.166-.204M9.409 20.43c-.596.716-1.007.58-1.142.534-.882-.294-1.906-2.158-2.808-5.113-.78-2.558-1.236-5.13-1.273-5.85-.114-2.281.44-3.87 1.644-4.725 1.96-1.39 5.182-.558 6.477-.136l-.056.054c-2.125 2.146-2.075 5.813-2.07 6.037q.001.127.017.377c.037.617.105 1.764-.077 3.064-.169 1.208.204 2.39 1.021 3.243q.127.131.265.25a55 55 0 0 0-1.998 2.265m2.27-3.03c-.658-.688-.958-1.644-.82-2.625.191-1.373.12-2.569.082-3.211q-.008-.137-.012-.23c.31-.276 1.749-1.047 2.774-.812.468.107.754.426.872.974.614 2.84.082 4.022-.346 4.973a9 9 0 0 0-.243.573l-.055.148c-.14.374-.27.722-.35 1.053-.701-.002-1.383-.302-1.901-.843m.108 3.829a1.7 1.7 0 0 1-.496-.214c.09-.042.25-.1.529-.158 1.347-.277 1.555-.473 2.01-1.05.104-.132.222-.282.385-.464.244-.273.355-.227.558-.143.163.067.323.273.387.499.03.106.065.309-.047.466-.95 1.33-2.332 1.312-3.325 1.064m7.05 6.56c-1.647.354-2.23-.487-2.615-1.449-.248-.62-.37-3.419-.284-6.51a.4.4 0 0 0-.016-.118 2 2 0 0 0-.046-.218c-.129-.45-.442-.826-.819-.982-.15-.062-.423-.176-.753-.091.07-.29.192-.617.324-.971l.056-.15c.062-.167.14-.341.223-.525.448-.995 1.061-2.358.396-5.436-.25-1.153-1.082-1.716-2.344-1.585-.756.078-1.449.384-1.794.559a6 6 0 0 0-.206.109c.097-1.162.46-3.333 1.823-4.706.857-.865 1.999-1.292 3.39-1.269 2.742.045 4.5 1.452 5.492 2.624.855 1.01 1.318 2.028 1.502 2.577-1.389-.141-2.334.133-2.813.818-1.042 1.49.57 4.38 1.345 5.77.142.255.265.475.303.569.253.611.58 1.02.818 1.317.073.092.144.18.198.258-.42.121-1.177.401-1.108 1.802-.055.704-.45 3.995-.651 5.158-.265 1.536-.83 2.109-2.42 2.45m6.88-7.872c-.43.2-1.15.35-1.834.382-.756.035-1.14-.085-1.231-.159-.043-.873.282-.964.626-1.06q.082-.022.158-.048.048.037.104.076c.608.4 1.69.444 3.22.128l.017-.003c-.207.193-.56.452-1.06.684"/></svg>
